public/avatar/body/111.svg

<svg xmlns:xlink="http://www.w3.org/1999/xlink" height="82" width="84.85" xmlns="http://www.w3.org/2000/svg"><g transform="translate(37.4 42.25)"><use height="38" transform="translate(-11.95 -17.45)" width="32.05" xlink:href="#a"/><use height="38.95" transform="translate(-12.45 -17.95)" width="33.05" xlink:href="#b"/><use height="20.75" transform="translate(-13.15 .8)" width="34.3" xlink:href="#c"/></g><defs><path d="M27.35 7.4q2.15 4.15 3.55 8.75 1.45 4.7 1.15 9.5-.35 4.95-4.2 8.1-3.8 3.2-8.75 4.05l-2.6.2q-3.6 0-7.05-1.15-4.65-1.6-7.1-5.5Q-.2 27.4.05 23q.2-4.4 2-9.3Q3.85 8.75 7 5.05 10.1 1.3 14.7.1l1.8-.1q1.9.05 3.7.8 4.75 2.05 7.15 6.6" fill="#d69e5e" fill-rule="evenodd" transform="translate(-.05)" id="d"/><path d="M27.35 7.4Q24.95 2.85 20.2.8 17.55-.3 14.7.1 10.1 1.3 7 5.05q-3.15 3.7-4.95 8.65-1.8 4.9-2 9.3-.25 4.4 2.3 8.35 2.45 3.9 7.1 5.5 4.65 1.55 9.65.95 4.95-.85 8.75-4.05 3.85-3.15 4.2-8.1.3-4.8-1.15-9.5-1.4-4.6-3.55-8.75Z" fill="none" stroke="#333" stroke-linecap="round" stroke-linejoin="round" transform="translate(.45 .5)" id="e"/><use height="38" width="32.05" xlink:href="#d" id="a"/><use height="38.95" width="33.05" xlink:href="#e" id="b"/><g id="c"><path d="M1.8 1.45 1.65 1l-.05.1v-.05L1.25 2.8q-.35 2.1-.2 3.95.5 6.15 1.25 5.15.55 1.55 2.9 3.6l.05-.1q4.1 4 11.2 4.3v.05h.5v-.05h.25q8.45-1.1 12.05-4.4l-.05.2q2.2-1.9 2.85-3.4.6.75.95-3.9.75-3.95-.25-7.2l-.05.1-.1.3" fill="none" stroke="#000" stroke-linecap="round" stroke-linejoin="round" stroke-width="2"/><path d="m19.6 1.8.5 4.7q-.15 5.4-3.55 9.2-3.3 3.65-12.5 4.8-8.1 0-12.45-4.8-3.4-3.8-3.6-9.2l.5-4.7q1.1 3.95 3.15 4.85 2 .9 6.6 2.4 1.65.7 3.55 2.7 1.65 1.7 2.25 1.7.6 0 2.25-1.7 1.9-2 3.55-2.7 1.4-.65 6.15-2.4 2.4-1.05 3.6-4.85" fill="#243f57" fill-rule="evenodd" transform="translate(13.15 -.8)"/><path d="M3.75 12.65q-9 0-11.7 3.65L-11 7.8l9.15.35q5.5 2.9 6.4 2.9l2-1.6q1.75-1.6 3.2-1.65l6.4-.25q3.85.85-.25 8.75-3.15-3.65-12.15-3.65" fill="#3e6b94" fill-rule="evenodd" transform="translate(13.15 -.8)"/><path d="M17.05 9.4q1.05.15 2.05-.6l1.5-1.65q1.1-1.2 2.35-1.75l3.85-.95q2.6-.5 3.5-1.3l1.65-1.6" fill="none" stroke="#80571a" stroke-linecap="round" stroke-linejoin="round" stroke-width="1.5"/><path d="M17.1 9.4q-1.05.15-2.05-.6-1.75-2.5-3.85-3.4-5.75-.85-7.35-2.25l-1.8-1.5" fill="none" stroke="#80571a" stroke-linecap="round" stroke-linejoin="round" stroke-width="1.5"/><path d="M19.75 3.6q.35 2.1.2 3.95l-.5 6.15Q15.8 8.5 14.7 8.35q-1.5-.2-4.25 1.25l-2.4 2.55q-1.85 1.9-4.15 1.9V11.1q1.05.2 2.05-.55l1.5-1.65q1.1-1.25 2.35-1.8.7-.3 3.85-.9 2.6-.5 3.5-1.35 1.55-1.4 2.25-3l.35 1.75" fill="#ff00a6" fill-rule="evenodd" transform="translate(13.15 -.8)"/><path d="m8.95 8.1-.15-.15q1.6-1.2 5.5-1.8 1.9-.9 5-3.9.65.6.65 3.3 0 1.35-.5 1.55H17.5l-4.35.1-4.2.9" fill="#ff8cca" fill-rule="evenodd" transform="translate(13.15 -.8)"/><path d="M1.9 10.55q1 .75 2.05.55l-.05 2.95q-2.3 0-4.1-1.9-1.6-2.1-2.4-2.55-2.85-1.4-3.95-1.25-.7.1-2.95 2.75l-2.1 2.6-.5-6.15q-.15-1.85.2-3.95l.35-1.75 2.25 3Q-7.7 6.3-1.95 7.1q2.1.95 3.85 3.45" fill="#ff00a6" fill-rule="evenodd" transform="translate(13.15 -.8)"/><path d="M-9.7 7.1h-1.9q-.6-.25-.5-1.55 0-2.7.65-3.3 3.1 3 5 3.9l2.8.75q1.8.4 2.7 1.05l-.15.15q-2.65-.85-4.2-.9l-4.4-.1" fill="#ff8cca" fill-rule="evenodd" transform="translate(13.15 -.8)"/><path d="M3.25 11.05h1.3v4.15h-1.3v-4.15" fill="#243f57" fill-rule="evenodd" transform="translate(13.15 -.8)"/><path d="m9.45 14.2 1.25-2.25 4.35.1-5.6 2.15" fill="#a2c9eb" fill-rule="evenodd" transform="translate(13.15 -.8)"/><path d="m16.4 8.65 2.7-.5.35 1.35q.3 1.55 0 2.5-.4 1.55-2.9 3.7l.5-3.3-.65-3.75m-24.25.55-.6 3.75q.05 1.6.5 3.35-2.5-2.15-2.95-3.7-.3-.95.05-2.55l.35-1.35 2.65.5" fill="#ff00a6" fill-rule="evenodd" transform="translate(13.15 -.8)"/><path d="M3.3 11.05h.5v9.5h-.5v-9.5" fill="#b6dafa" fill-rule="evenodd" transform="translate(13.15 -.8)"/><path d="M3.9 11.1q1.05.2 2.05-.55l1.5-1.65q1.1-1.25 2.35-1.8.7-.3 3.85-.9 2.6-.5 3.5-1.35 1.55-1.4 2.25-3" fill="none" stroke="#fff5fb" stroke-linecap="round" stroke-linejoin="round" transform="translate(13.15 -.8)"/><path d="M3.95 11.1q-1.05.2-2.05-.55Q.15 8.05-1.95 7.1-7.7 6.3-9.3 4.85l-2.25-3" fill="none" stroke="#fff5fb" stroke-linecap="round" stroke-linejoin="round" transform="translate(13.15 -.8)"/></g></defs></svg>

<?xml version="1.0" encoding="UTF-8" standalone="no"?>
<svg xmlns:xlink="http://www.w3.org/1999/xlink" height="82.0px" width="84.85px" xmlns="http://www.w3.org/2000/svg">
  <g transform="matrix(1.0, 0.0, 0.0, 1.0, 37.4, 42.25)">
    <use height="38.0" transform="matrix(1.0, 0.0, 0.0, 1.0, -11.95, -17.45)" width="32.05" xlink:href="#sprite0"/>
    <use height="38.95" transform="matrix(1.0, 0.0, 0.0, 1.0, -12.45, -17.95)" width="33.05" xlink:href="#sprite1"/>
    <use height="20.75" transform="matrix(1.0, 0.0, 0.0, 1.0, -13.15, 0.8)" width="34.3" xlink:href="#shape2"/>
  </g>
  <defs>
    <g id="sprite0" transform="matrix(1.0, 0.0, 0.0, 1.0, -0.05, 0.0)">
      <use height="38.0" transform="matrix(1.0, 0.0, 0.0, 1.0, 0.05, 0.0)" width="32.05" xlink:href="#shape0"/>
    </g>
    <g id="shape0" transform="matrix(1.0, 0.0, 0.0, 1.0, -0.05, 0.0)">
      <path d="M27.35 7.4 Q29.5 11.55 30.9 16.15 32.35 20.85 32.05 25.65 31.7 30.6 27.85 33.75 24.05 36.95 19.1 37.8 L16.5 38.0 Q12.9 38.0 9.45 36.85 4.8 35.25 2.35 31.35 -0.2 27.4 0.05 23.0 0.25 18.6 2.05 13.7 3.85 8.75 7.0 5.05 10.1 1.3 14.7 0.1 L16.5 0.0 Q18.4 0.05 20.2 0.8 24.95 2.85 27.35 7.4" fill="#d69e5e" fill-rule="evenodd" stroke="none"/>
    </g>
    <g id="sprite1" transform="matrix(1.0, 0.0, 0.0, 1.0, 0.45, 0.5)">
      <use height="38.95" transform="matrix(1.0, 0.0, 0.0, 1.0, -0.45, -0.5)" width="33.05" xlink:href="#shape1"/>
    </g>
    <g id="shape1" transform="matrix(1.0, 0.0, 0.0, 1.0, 0.45, 0.5)">
      <path d="M27.35 7.4 Q24.95 2.85 20.2 0.8 17.55 -0.3 14.7 0.1 10.1 1.3 7.0 5.05 3.85 8.75 2.05 13.7 0.25 18.6 0.05 23.0 -0.2 27.4 2.35 31.35 4.8 35.25 9.45 36.85 14.1 38.4 19.1 37.8 24.05 36.95 27.85 33.75 31.7 30.6 32.05 25.65 32.35 20.85 30.9 16.15 29.5 11.55 27.35 7.4 Z" fill="none" stroke="#333333" stroke-linecap="round" stroke-linejoin="round" stroke-width="1.0"/>
    </g>
    <g id="shape2" transform="matrix(1.0, 0.0, 0.0, 1.0, 13.15, -0.8)">
      <path d="M-11.35 2.25 L-11.5 1.8 -11.55 1.9 -11.55 1.85 -11.9 3.6 Q-12.25 5.7 -12.1 7.55 -11.6 13.7 -10.85 12.7 -10.3 14.25 -7.95 16.3 L-7.9 16.2 Q-3.8 20.2 3.3 20.5 L3.3 20.55 3.8 20.55 3.8 20.5 4.05 20.5 Q12.5 19.4 16.1 16.1 L16.05 16.3 Q18.25 14.4 18.9 12.9 19.5 13.65 19.85 9.0 20.6 5.05 19.6 1.8 L19.55 1.9 19.45 2.2" fill="none" stroke="#000000" stroke-linecap="round" stroke-linejoin="round" stroke-width="2.0"/>
      <path d="M19.6 1.8 L20.1 6.5 Q19.95 11.9 16.55 15.7 13.25 19.35 4.05 20.5 -4.05 20.5 -8.4 15.7 -11.8 11.9 -12.0 6.5 L-11.5 1.8 Q-10.4 5.75 -8.35 6.65 -6.35 7.55 -1.75 9.05 -0.1 9.75 1.8 11.75 3.45 13.45 4.05 13.45 4.65 13.45 6.3 11.75 8.2 9.75 9.85 9.05 11.25 8.4 16.0 6.65 18.4 5.6 19.6 1.8" fill="#243f57" fill-rule="evenodd" stroke="none"/>
      <path d="M3.75 12.65 Q-5.25 12.65 -7.95 16.3 L-11.0 7.8 -1.85 8.15 Q3.65 11.05 4.55 11.05 L6.55 9.45 Q8.3 7.85 9.75 7.8 L16.15 7.55 Q20.0 8.4 15.9 16.3 12.75 12.65 3.75 12.65" fill="#3e6b94" fill-rule="evenodd" stroke="none"/>
      <path d="M3.9 10.2 Q4.95 10.35 5.95 9.6 L7.45 7.95 Q8.55 6.75 9.8 6.2 L13.65 5.25 Q16.25 4.75 17.15 3.95 L18.8 2.35" fill="none" stroke="#80571a" stroke-linecap="round" stroke-linejoin="round" stroke-width="1.5"/>
      <path d="M3.95 10.2 Q2.9 10.35 1.9 9.6 0.15 7.1 -1.95 6.2 -7.7 5.35 -9.3 3.95 L-11.1 2.45" fill="none" stroke="#80571a" stroke-linecap="round" stroke-linejoin="round" stroke-width="1.5"/>
      <path d="M19.75 3.6 Q20.1 5.7 19.95 7.55 L19.45 13.7 Q15.8 8.5 14.7 8.35 13.2 8.15 10.45 9.6 L8.05 12.15 Q6.2 14.05 3.9 14.05 L3.9 11.1 Q4.95 11.3 5.95 10.55 L7.45 8.9 Q8.55 7.65 9.8 7.1 10.5 6.8 13.65 6.2 16.25 5.7 17.15 4.85 18.7 3.45 19.4 1.85 L19.75 3.6" fill="#ff00a6" fill-rule="evenodd" stroke="none"/>
      <path d="M8.95 8.1 L8.8 7.95 Q10.4 6.75 14.3 6.15 16.2 5.25 19.3 2.25 19.95 2.85 19.95 5.55 19.95 6.9 19.45 7.1 L17.5 7.1 13.15 7.2 8.95 8.1" fill="#ff8cca" fill-rule="evenodd" stroke="none"/>
      <path d="M1.9 10.55 Q2.9 11.3 3.95 11.1 L3.9 14.05 Q1.6 14.05 -0.2 12.15 -1.8 10.05 -2.6 9.6 -5.45 8.2 -6.55 8.35 -7.25 8.45 -9.5 11.1 L-11.6 13.7 -12.1 7.55 Q-12.25 5.7 -11.9 3.6 L-11.55 1.85 -9.3 4.85 Q-7.7 6.3 -1.95 7.1 0.15 8.05 1.9 10.55" fill="#ff00a6" fill-rule="evenodd" stroke="none"/>
      <path d="M-9.7 7.1 L-11.6 7.1 Q-12.2 6.85 -12.1 5.55 -12.1 2.85 -11.45 2.25 -8.35 5.25 -6.45 6.15 L-3.65 6.9 Q-1.85 7.3 -0.95 7.95 L-1.1 8.1 Q-3.75 7.25 -5.3 7.2 L-9.7 7.1" fill="#ff8cca" fill-rule="evenodd" stroke="none"/>
      <path d="M3.25 11.05 L4.55 11.05 4.55 15.2 3.25 15.2 3.25 11.05" fill="#243f57" fill-rule="evenodd" stroke="none"/>
      <path d="M9.45 14.2 L10.7 11.95 15.05 12.05 9.45 14.2" fill="#a2c9eb" fill-rule="evenodd" stroke="none"/>
      <path d="M16.4 8.65 L19.1 8.15 19.45 9.5 Q19.75 11.05 19.45 12.0 19.05 13.55 16.55 15.7 L17.05 12.4 16.4 8.65" fill="#ff00a6" fill-rule="evenodd" stroke="none"/>
      <path d="M-7.85 9.2 L-8.45 12.95 Q-8.4 14.55 -7.95 16.3 -10.45 14.15 -10.9 12.6 -11.2 11.65 -10.85 10.05 L-10.5 8.7 -7.85 9.2" fill="#ff00a6" fill-rule="evenodd" stroke="none"/>
      <path d="M3.3 11.05 L3.8 11.05 3.8 20.55 3.3 20.55 3.3 11.05" fill="#b6dafa" fill-rule="evenodd" stroke="none"/>
      <path d="M3.9 11.1 Q4.95 11.3 5.95 10.55 L7.45 8.9 Q8.55 7.65 9.8 7.1 10.5 6.8 13.65 6.2 16.25 5.7 17.15 4.85 18.7 3.45 19.4 1.85" fill="none" stroke="#fff5fb" stroke-linecap="round" stroke-linejoin="round" stroke-width="1.0"/>
      <path d="M3.95 11.1 Q2.9 11.3 1.9 10.55 0.15 8.05 -1.95 7.1 -7.7 6.3 -9.3 4.85 L-11.55 1.85" fill="none" stroke="#fff5fb" stroke-linecap="round" stroke-linejoin="round" stroke-width="1.0"/>
    </g>
  </defs>
</svg>
